X: 7940
T: Condon's Frolics
R: jig
M: 6/8
K: Bminor
fbb fga|efd cBA|d3 ede|f2e f=ga|
fbb fga|efd cBc|Ace aec|1 ~B3 B2e:|2 ~B3 B2=g||
|:fBc d2e|fed cBA|fBc d2e|f2e fba|
fBc d2e|fed cBc|Ace aec|1 ~B3 B2=g:|2 ~B3 B2e||
fbb faf|fed cBA|d3 ede|f2e fba|
fbb faf|fed cBc|Ace aec|~B3 Bde:|
|:fBc d2f|fed cBA|fBc d2e|f2e fba|
fBc d2f|fed cBc|Ace aec|~B3 Bde:|

